X:3573
L:1/8
M:4/4
K:C
[M:4/4][K:Emin] uca ue a a ee!p!!p! e BA | G>EED E2 GA | B>AGE D2 GA | B2 A>B AGED | E2 E>D E2 BA | 
 G>EFD E2 FG | A>GFE D2 GA | B2 A>B AGED | E2 E>D E2 :| Bc | d2 d>e dBAB | dBAB d2 Bd | 
 e2 e>f edBd | edef e2 ed | B2 e>d B2 BA | G>ABd e2 ed | B2 A>B AGED | E2 E>D E2 :|

